!!!COM: Chopin, Frederic
!!!CDT: 1810///-1849///
!!!OTL: Nocturne in E Minor, Op. 72, No. 1
!!!OPS: Op. 72
!!!ONM: No. 1
!!!ODT: ~1839///
!!!OMD: Andante
!!!AIN: piano
**kern	**kern	**dynam
*staff2	*staff1	*staff1/2
*Ipiano	*Ipiano	*Ipiano
*clefF4	*clefG2	*clefG2
*k[f#]	*k[f#]	*k[f#]
*met(C)	*met(C)	*met(C)
*M4/4	*M4/4	*M4/4
*MM68	*MM68	*MM68
=1-	=1-	=1-
(12EE/L	1r	p
12BB/	.	.
12G/J	.	.
12E\L	.	.
12c\	.	.
(12B\J)	.	.
12EE/L	.	.
12BB/	.	.
12G/J	.	.
12E\L	.	.
12c\	.	.
12B\J)	.	.
=2	=2	=2
.	bq/	.
(12EE/L	(2.gg\	.
12BB/	.	.
12G/J	.	.
12E\L	.	.
12c\	.	.
(12B\J)	.	.
12EE/L	.	.
12BB/	.	.
12G/J	.	.
12E\L	8ff#\L	.
12c\	.	.
.	8ee\J)	.
12B\J)	.	.
=3	=3	=3
12FF#/L	([2dd#\	.
12BB/	.	.
12A/J	.	.
12F#\L	.	.
12c\	.	.
12B\J	.	.
12GG/L	4dd#\]	.
12BB/	.	.
12G/J	.	.
12E\L	8.ee\L	.
12c\	.	.
12B\J	.	.
.	16cc\Jk)	.
=4	=4	=4
12DD#/L	(4.b\	.
12BB/	.	.
12A/J	.	.
12F#\L	.	.
12c\	.	.
.	8f#/	>
12B\J	.	.
12EE/L	8a/ 8cc/L	.
12BB/	.	.
.	8g/ 8b/	.
12G/J	.	.
12E\L	8f#/ 8a/	.
12c\	.	.
.	8e/ 8g/J)	.
12B\J	.	.
=5	=5	=5
12BBB/L	4d#/ (4f#/	<
12BB/	.	.
12B/J	.	.
12A#\L	4e/ 4g/	>
12G\	.	.
12AA#\J	.	.
12BB/L	8d#/ 8f#/)	.
12BBB/	.	.
.	8r	.
12BB/J	.	.
12D#\L	4r	.
12F#\	.	.
12B\J	.	.
=6	=6	=6
*	*^	*
(12GG\L	(4b/	4dn\	p
12D\	.	.	.
12B\J	.	.	.
12G\L	2b/	4fn\	.
12e\	.	.	.
12d\J)	.	.	.
(12FF#\L	.	4f#\	<
12F#\	.	.	.
12c#\J	.	.	.
12e\L	4cc#/	4a#\	.
12c#\	.	.	.
12F#\J)	.	.	.
=7	=7	=7	=7
(12BB\L	2dd/)	2b\	.
12F#\	.	.	.
12d\J	.	.	.
12B\L	.	.	.
12g\	.	.	.
12f#\J	.	.	.
12e#\L	(4dd/	2b\	.
12d\	.	.	.
12B\J	.	.	.
12G#\L	4dd/	.	>
12E#\	.	.	.
12EE#\J)	.	.	.
=8	=8	=8	=8
(12FF#\L	1cc#	2b\	.
12F#\	.	.	.
12c#\J	.	.	.
12en\L	.	.	.
12gn\	.	.	.
12f#\J	.	.	.
12e\L	.	2a#\	.
12c#\	.	.	.
12A#\J	.	.	.
12F#/L	.	.	.
12FF#/	.	.	.
12FFF#/J	.	.	.
*	*v	*v	*
=9	=9	=9
*^	*	*
4r	12BBB/L)	4b/)	.
.	(12BB/	.	.
.	12F#/J	.	.
4An/	12An\L	(4d#/	<
.	12cn\	.	.
.	12B\J	.	.
4G/	12G\L	4e/	.
.	12c\	.	.
.	12B\J	.	.
4F#/	12F#\L	4f#/)	.
.	12c\	.	.
.	12B\J)	.	.
*v	*v	*	*
=10	=10	=10
12EE/L	2.g\ (2.gg\	mf
12BB/	.	.
12G/J	.	.
12E\L	.	.
12c\	.	.
12B\J	.	.
12EE/L	.	.
12BB/	.	.
12G/J	.	.
12E\L	8f#\ 8ff#\L	.
12c\	.	.
.	8e\ 8ee\J)	.
12B\J	.	.
=11	=11	=11
12FF#/L	([2d#/ 2dd#/	.
12BB/	.	.
12A/J	.	.
12F#\L	.	.
12c\	.	.
12B\J	.	.
12GG/L	12d#/] 12dd#/L	<
12BB/	12e/ 12ee/	.
12G/J	12f#/) 12ff#/J	.
12E\L	12f#\ (12ff#\L	.
12c\	12g\ 12gg\	.
12B\J	12a\ 12aa\J)	.
=12	=12	=12
*	*^	*
12DD#/L	4.r	4.b\ (4.bb\	.
12BB/	.	.	.
12A/J	.	.	.
12F#\L	.	.	.
12c\	.	.	.
.	8b/	8a\)	.
12B\J	.	.	.
12EE/L	(4b/	12a\L	.
12BB/	.	12g#\	.
12G/J	.	12gn\J	.
12E\L	12b/L	12g\L	.
12c\	12a/	12f#\	.
12B\J	12g/J)	12e\J	.
=13	=13	=13	=13
12BBB/L	(4f#/	4d#\	.
12BB/	.	.	.
12B/J	.	.	.
12A#/L	12g/L	12e\L	.
12BB/	12ee/	12g\	.
12BBB/J	12ee/J	12g\J	.
12BB/L	2dd#/)	2f#\	.
12BBB/	.	.	.
12BB/J	.	.	.
12D#\L	.	.	.
12F#\	.	.	.
12B\J	.	.	.
=14	=14	=14	=14
12BB/L	(2ddn/	4f#\	p
12BBB/	.	.	.
12BB/J	.	.	.
12Dn\L	.	8g\L	<
12G\	.	.	.
.	.	8fn\J	.
12B\J	.	.	.
12c\L	4dd/	2e\	.
12B\	.	.	.
12c\J	.	.	.
12G\L	[4cc/	.	.
12E\	.	.	.
12C\J	.	.	.
=15	=15	=15	=15
12GG/L	8cc/L]	2fn\	>
12D/	.	.	.
.	8b/	.	.
12G/J	.	.	.
12B\L	8a/	.	.
12e\	.	.	.
.	8g/J	.	.
12d\J	.	.	.
12c\L	4g/)	2e\	.
12C\	.	.	.
12E\J	.	.	.
12G\L	8g/L	.	.
12c\	.	.	.
.	8g/J	.	.
12e\J	.	.	.
=16	=16	=16	=16
12c#\L	(4a/	2e\ 2g\	<
12C#\	.	.	.
12E\J	.	.	.
12A\L	8a/L	.	.
12fn\	.	.	.
.	8a/J	.	.
12e\J	.	.	.
12DD/L	4a/	2f#\	.
12D/	.	.	.
12Fn/J	.	.	.
12A\L	8a/L	.	.
12e\	.	.	.
.	8a/J)	.	.
12d\J	.	.	.
=17	=17	=17	=17
12DD#/L	(4b/	2f#\ 2a\	.
12D#/	.	.	.
12F#/J	.	.	.
12B\L	8b/L	.	.
12g\	.	.	.
.	8b/J	.	.
12f#\J	.	.	.
12EE\L	4b/	2g\	.
12E\	.	.	.
12G\J	.	.	.
12B\L	4b/ 4cc#/)	.	.
12g\	.	.	.
12e\J	.	.	.
=18	=18	=18	=18
12FF#\L	2b/ 2ddn/	(2f#\	f
12F#\	.	.	.
12dn\J	.	.	.
12B\L	.	.	.
12g\	.	.	.
12f#\J	.	.	.
*	*v	*v	*
*	*^	*
12FF#\L	2cc#/	4b\	<
12F#\	.	.	.
12d\J	.	.	.
12c#\L	.	4a#\)	.
12g\	.	.	.
12f#\J	.	.	.
=19	=19	=19	=19
12BBB/L	(2dd#/	2an^\	.
12BB/	.	.	.
12F#/J	.	.	.
12B\L	.	.	.
12g\	.	.	.
12f#\J	.	.	.
12EE\L	4ee/	2g\	.
12E\	.	.	.
12G\J	.	.	.
12B\L	4b/	.	.
12f#\	.	.	.
12e\J	.	.	.
=20	=20	=20	=20
12FF#/L	2a#/	4g\	.
12C#/	.	.	.
12E/J	.	.	.
12A#\L	.	8f#\L	.
12d\	.	.	.
.	.	8e\J	.
12c#\J	.	.	.
12FF#/L	2b/)	2d\	.
12D/	.	.	.
12F#/J	.	.	.
12B\L	.	.	.
12A#\	.	.	.
12B\J	.	.	.
=21	=21	=21	=21
12FF#/L	(2b^/	2.c#\	>
12C#/	.	.	.
12E#/J	.	.	.
12F#\L	.	.	.
12An\	.	.	.
12G\J	.	.	.
12FF#/L	2a#/	.	.
12C#/	.	.	.
12E#/J	.	.	.
12F#\L	.	4e\	.
12E#\	.	.	.
12F#\J	.	.	.
*	*v	*v	*
=22	=22	=22
12BBB/L	2d#/ 2b/)	pp
12FF#/	.	.
12F#/J	.	.
12D#/L	.	.
12C#/	.	.
12BB/J	.	.
12BBB/L	2r	.
12FF#/	.	.
12F#/J	.	.
12D#/L	.	.
12C#/	.	.
12BB/J	.	.
=23	=23	=23
12BBB/L	2b\ (2dd#\	pp
12FF#/	.	.
12F#/J	.	.
12D#/L	.	.
12C#/	.	.
12BB/J	.	.
.	cc#q/	.
12BBB/L	2an\ 2cc#\	.
12FF#/	.	.
12F#/J	.	.
12D#/L	.	.
12C#/	.	.
12BB/J	.	.
=24	=24	=24
.	g#q/	.
12BBB/L	&(2.g#/&) 2.b/)	.
12BB/	.	.
12G#/J	.	.
12E/L	.	.
12C#/	.	.
12BB/J	.	.
12BBB/L	.	.
12BB/	.	.
12G#/J	.	.
12E/L	4a\ (4ccn\	<
12C#/	.	.
12BB/J	.	.
=25	=25	=25
*	*^	*
12BBB/L	2r	4.a#\ 4.cc#\	.
12BB/	.	.	.
12Gn/J	.	.	.
12E/L	.	.	.
12C#/	.	.	.
.	.	8b\ 8dd#\	.
12BB/J	.	.	.
12BBB/L	8cc#/ 8ee/L	4r	.
12BB/	.	.	.
.	8dd#/ 8ff#/	.	.
12G/J	.	.	.
12E/L	8ee/ 8gg/	4a#\	.
12C#/	.	.	.
.	8ee/ 8gg/J	.	.
12BB/J	.	.	.
=26	=26	=26	=26
12BBB/L	4ee/ 4gg/	1b	>
12FF#/	.	.	.
12F#/J	.	.	.
12D#/L	2.dd#/ 2.ff#/)	.	.
12C#/	.	.	.
12BB/J	.	.	.
12BBB/L	.	.	.
12FF#/	.	.	.
12F#/J	.	.	.
12D#/L	.	.	.
12C#/	.	.	.
12BB/J	.	.	.
*	*v	*v	*
=27	=27	=27
12BBB/L	2d#/ 2b/ (2dd#/	f
12FF#/	.	.
12F#/J	.	.
12D#/L	.	.
12C#/	.	.
12BB/J	.	.
12BBB/L	4.d#/ 4.an/ 4.cc#/	.
12FF#/	.	.
12F#/J	.	.
12D#/L	.	.
12C#/	.	.
.	8d#/ 8a/ 8b/	.
12BB/J	.	.
=28	=28	=28
*	*^	*
12BBB/L	4cc#/	1e 1g#	.
12BB/	.	.	.
12G#/J	.	.	.
12E/L	2b/	.	.
12C#/	.	.	.
12BB/J	.	.	.
12BBB/L	.	.	.
12BB/	.	.	.
12G#/J	.	.	.
12E/L	4b/	.	.
12C#/	.	.	.
12BB/J	.	.	.
=29	=29	=29	=29
12BBB/L	1a#	4.e\ 4.gn\	>
12BB/	.	.	.
12Gn/J	.	.	.
12E/L	.	.	.
12C#/	.	.	.
.	.	8d#\ 8f#\	.
12BB/J	.	.	.
12BBB/L	.	8e\ 8g\L	.
12BB/	.	.	.
.	.	8d#\ 8f#\	.
12G/J	.	.	.
12E/L	.	8e\ 8g\	.
12C#/	.	.	.
.	.	8e\ 8g\J	.
12BB/J	.	.	.
=30	=30	=30	=30
12BBB/L	2.f#/ 2.an/)	(4e^\	.
12BB/	.	.	.
12F#/J	.	.	.
12A\L	.	2d#\)	.
12cn\	.	.	.
12B\J	.	.	.
12A\L	.	.	.
12F#\	.	.	.
12D#\J	.	.	.
12C/L	4r	4r	.
12BB/	.	.	.
12BBB/J	.	.	.
*	*v	*v	*
=31	=31	=31
.	bq/	.
(12EE/L	2.gg\	f
12BB/	.	.
12G/J	.	.
12E\L	.	.
12c\	.	.
(12B\J)	.	.
12EE/L	.	.
12BB/	.	.
12G/J	.	.
12E\L	(16b\LL	.
.	16a#\	.
12c\	.	.
.	16b\	.
12B\J)	.	.
.	16ee\JJ	.
=32	=32	=32
(12FF#/L	2.dd#\)	.
12BB/	.	.
12A/J	.	.
12F#\L	.	.
12c\	.	.
(12B\J)	.	.
12GG/L	.	.
12BB/	.	.
12G/J	.	.
12E\L	(24ee\LL	<
.	24dd#\	.
12c\	24ee\	.
.	24ff#\	.
12B\J)	24gg\	.
.	24aa\JJ	.
=33	=33	=33
(12DD#/L	2.bb\)	.
12BB/	.	.
12A/J	.	.
12F#\L	.	.
12c\	.	.
(12B\J)	.	.
12EE/L	.	.
12BB/	.	.
12G/J	.	.
12E\L	(24bb\LL	<
.	24ccc#\	.
12cn\	24ddd#\	.
.	24eee\	.
12B\J)	24fff#\	.
.	24ggg\JJ	.
=34	=34	=34
*^	*	*
12BBB/L	4r	4fff#\)	.
12BB/	.	.	.
12F#/J	.	.	.
4G/	12G\L	(32eee\LLL	>
.	.	32ccc#\	.
.	.	32aa#\	.
.	12BB\	.	.
.	.	32ggn\	.
.	.	32ee\	.
.	.	32cc#\	.
.	12A#\J	.	.
.	.	32a#\	.
.	.	32e\JJJ	.
12B/L	4r	4d#/ 4b/)	.
(12BB/	.	.	.
12AA#/J	.	.	.
4r	12BB\L	4r	.
.	12D#\	.	.
.	12F#\J)	.	.
*v	*v	*	*
=35	=35	=35
12GG\L	(4dn/	p
12Dn\	.	.
12B\J	.	.
.	eq/LL	.
.	f#q/	.
.	gq/	.
.	aq/JJ	.
12G\L	(12b'\L)	.
12e\	12b'\	.
12d\J	12b'\J)	.
12FF#\L	(4b\	.
12F#\	.	.
12d\J	.	.
12e\L	40a#\LLL	<
.	40g#\	.
.	40a#\	.
.	40b\	.
12c#\	.	.
.	40cc#\	.
.	40ddn\	.
.	40ee\	.
12F#\J	.	.
.	40ff#\	.
.	40gg#\	.
.	40aa#\JJJ	.
=36	=36	=36
12BB\L	2bb\	.
12F#\	.	.
12d\J	.	.
12B\L	.	.
12g\	.	.
12f#\J	.	.
12e#\L	2b\	.
12d\	.	.
12B\J	.	.
12E#/L	.	.
12D/	.	.
12EE#/J	.	.
=37	=37	=37
*	*^	*
12FF#\L	&(2cc#/&)	2b\	.
12F#\	.	.	.
12c#\J	.	.	.
12e\L	.	.	.
12g\	.	.	.
12f#\J	.	.	.
12e\L	4cc#/	2a#\	.
12c#\	.	.	.
12A#\J	.	.	.
12F#/L	44b#/LLL	.	<
.	44cc#/	.	.
.	44dd/	.	.
.	44dd#/	.	.
12FF#/	.	.	.
.	44ee/	.	.
.	44ee#/)	.	.
.	44ff#/	.	.
.	44gg/	.	.
12FFF#/J	.	.	.
.	44gg#/	.	.
.	44aan/	.	.
.	44aa#/JJJ	.	.
*	*v	*v	*
=38	=38	=38
*^	*	*
4r	12BBB/L	4bn\ 4bb\	f
.	12BB/	.	.
.	12F#/J	.	.
12An\L	4An/	(4d#/	<
12cn\	.	.	.
12B\J	.	.	.
12G\L	4G/	4e/	.
12c\	.	.	.
12B\J	.	.	.
12F#\L	4F#/	4f#/)	.
12c\	.	.	.
12B\J	.	.	.
*v	*v	*	*
=39	=39	=39
12EE/L	2.g\ (2.gg\	f
12BB/	.	.
12G/J	.	.
12E\L	.	.
12c\	.	.
12B\J	.	.
12EE/L	.	.
12BB/	.	.
12G/J	.	.
12E\L	8f#\ 8ff#\L	.
12c\	.	.
.	8e\ 8ee\J)	.
12B\J	.	.
=40	=40	=40
12FF#/L	[2d#/ ([2dd#/	.
12BB/	.	.
12A/J	.	.
12F#\L	.	.
12c\	.	.
12B\J	.	.
12GG/L	12d#/] 12dd#/L]	<
12BB/	12e/ 12ee/	.
12G/J	12f#/ 12ff#/J	.
12E\L	12g\ 12gg\L	.
12c\	12a\ 12aa\)	.
12B\J	24r	.
.	24b\ 24bb\Jk	.
=41	=41	=41
*	*^	*
12DD#/L	2r	12b\ (12bb\L	ff
12BB/	.	12b\ 12bb\	.
12B/J	.	12b\ 12bb\J	.
12F#\L	.	12b\ 12bb\L)	.
12c^\	.	([12b\	.
12B^\J	.	12a\ 12b\J]	.
12EE/L	12b/L	12a\L	>
12BB/	12b/	12g#\	.
12G/J	12b/J	12gn\J	.
12E\L	12b/L	12g\L	>
12c\	12a/	12f#\	.
12B\J	12g/J)	12e\J	.
=42	=42	=42	=42
12BBB/L	(4f#/	4d#\	.
12BB/	.	.	.
12B/J	.	.	.
12A#/L	12g/L	12e\L	.
12BB/	12ee/	12g\	.
12BBB/J	12ee/J	12g\J	.
12BB/L	2dd#/)	2f#\	.
12BBB/	.	.	.
12BB/J	.	.	.
12D#\L	.	.	.
12F#\	.	.	.
12B\J	.	.	.
=43	=43	=43	=43
12c\L	([2dd#/	[2f#\ [2an\	>
12C\	.	.	.
12BB\J	.	.	.
12C/L	.	.	.
12Dn/	.	.	.
12C/J	.	.	.
12BB/L	4dd#/]	2f#\] 2a\]	.
12BBB/	.	.	.
12BB/J	.	.	.
12F#\L	4dd#/	.	.
12c\	.	.	.
12B\J	.	.	.
=44	=44	=44	=44
12BB/L	2ee/	2e\ 2g\	.
12BBB/	.	.	.
12BB/J	.	.	.
12E\L	.	.	.
12c\	.	.	.
12B\J	.	.	.
12A#\L	4ee/	2e\ 2g\	.
12G\	.	.	.
12E\J	.	.	.
12AA#/L	4ee/	.	.
12GG/	.	.	.
12AAA#/J	.	.	.
=45	=45	=45	=45
12BBB/L	2gg/	2g\ 2b\	.
12BB/	.	.	.
12E/J	.	.	.
*	*v	*v	*
12G\L	.	.
12c\	.	.
12B\J	.	.
.	eeq/JJ	.
.	ff#q/LL	.
*	*^	*
12BB/L	4ee/)	2f#^\ 2an^\ 2b^\	.
12AA#/	.	.	.
12BB/J	.	.	.
12BBB/L	4dd#/	.	.
12AAA#/	.	.	.
12BBB/J	.	.	.
*	*v	*v	*
=46	=46	=46
12EE/L	2.g#\ 2.b\ 2.ee\	>
12BB/	.	.
12B/J	.	.
12G#\L	.	.
12F#\	.	.
12E\J	.	.
12EE/L	.	.
12BB/	.	.
12B/J	.	.
12G#\L	4r	.
12F#\	.	.
12E\J	.	.
=47	=47	=47
12EE/L	2ee\ (2gg#\	pp
12BB/	.	.
12B/J	.	.
12G#\L	.	.
12F#\	.	.
12E\J	.	.
12EE/L	2ddn\ 2ff#\	.
12BB/	.	.
12B/J	.	.
12G#\L	.	.
12F#\	.	.
12E\J	.	.
=48	=48	=48
12EE\L	2.cc#\ 2.ee\)	.
12E\	.	.
12c#\J	.	.
12A\L	.	.
12F#\	.	.
12E\J	.	.
12EE\L	.	.
12E\	.	.
12c#\J	.	.
12A\L	4dd\ (4ffn\	<
12F#\	.	.
12E\J	.	.
=49	=49	=49
*	*^	*
12EE\L	2r	4.dd#\ 4.ff#\	.
12E\	.	.	.
12cn\J	.	.	.
12A\L	.	.	.
12F#\	.	.	.
.	.	8ee\ 8gg#\	.
12E\J	.	.	.
12EE\L	8ff#/ 8aa/L	4r	.
12E\	.	.	.
.	8gg#/ 8bb/	.	.
12c\J	.	.	.
12A\L	8aa/ 8cccn/	4dd#\	.
12F#\	.	.	.
.	8aa/ 8ccc/J	.	.
12E\J	.	.	.
=50	=50	=50	=50
12EE/L	4aa/ 4ccc/	2ee\	>
12BB/	.	.	.
12B/J	.	.	.
12G#\L	4gg#/ 4bb/)	.	.
12F#\	.	.	.
12E\J	.	.	.
12EE/L	2r	2r	.
12BB/	.	.	.
12B/J	.	.	.
12G#\L	.	.	.
12F#\	.	.	.
12E\J	.	.	.
=51	=51	=51	=51
12EE/L	[4ee/ ([4gg#/	4r	p
12BB/	.	.	.
12B/J	.	.	.
12G#\L	12ee/] 12gg#/L]	[4g#\	.
12F#\	12ee/ 12gg#/	.	.
12E\J	12ee/ 12gg#/J	.	.
12EE/L	8gg#/L	4g#\] 4ddn\	.
12BB/	.	.	.
.	[8ff#/J	.	.
12B/J	.	.	.
12G#\L	12dd/ 12ff#/L]	4g#\	.
12F#\	12dd/ 12ff#/	.	.
12E\J	12dd/ 12ff#/J	.	.
*	*v	*v	*
=52	=52	=52
.	ff#q/	.
*	*^	*
12EE\L	2cc#/ 2ee/)	2a\	.
12E\	.	.	.
12c#\J	.	.	.
12A\L	.	.	.
12F#\	.	.	.
12E\J	.	.	.
12EE\L	2r	2r	.
12E\	.	.	.
12c#\J	.	.	.
12A\L	.	.	.
12F#\	.	.	.
12E\J	.	.	.
=53	=53	=53	=53
12EE\L	(1dd#	4.a\ 4.ccn\	>
12E\	.	.	.
12cn\J	.	.	.
12A\L	.	.	.
12F#\	.	.	.
.	.	8g#\ 8b\	.
12E\J	.	.	.
12EE\L	.	8a\ 8cc\L	.
12E\	.	.	.
.	.	8g#\ 8b\	.
12c\J	.	.	.
12A\L	.	8a\ 8cc\	.
12F#\	.	.	.
.	.	8a\ 8cc\J	.
12E\J	.	.	.
*	*v	*v	*
=54	=54	=54
12EE/L	2.g#\ 2.b\ 2.ee\)	>
12BB/	.	.
12B/J	.	.
12G#\L	.	.
12F#\	.	.
12E\J	.	.
12EE/L	.	.
12BB/	.	.
12B/J	.	.
12G#\L	4r	.
12F#\	.	.
12E\J	.	.
=55	=55	=55
12EE\L	2.d#/ 2.f#/ (2.a/	pp
12E\	.	.
12c\J	.	.
12A\L	.	.
12F#\	.	.
12E\J	.	.
12EE\L	.	.
12E\	.	.
12c\J	.	.
12A\L	4d#/ 4f#/ 4a/	.
12F#\	.	.
12E\J	.	.
=56	=56	=56
12EE/L	4e/ 4g#/)	.
12BB/	.	.
12B/J	.	.
12G#\L	4r	.
12F#\	.	.
12E\J	.	.
12EE/L	2r	.
12BB/	.	.
12B/J	.	.
12G#\L	.	.
12F#\	.	.
[12E\J	.	.
*	*clefF4	*clefF4
=57	=57	=57
2.E^\] 2.G#^\ 2.e^\	2.EE^/	.
4r	4r	.
==	==	==
*-	*-	*-
!!!ENC: Craig Stuart Sapp
!!!END: 2004/11/15/
